templates/main/source/images/logo-hc.svg

<?xml version="1.0" encoding="utf-8"?>
<svg width="240px" height="17px" viewBox="0 0 240 17" version="1.1" xmlns:xlink="http://www.w3.org/1999/xlink" xmlns="http://www.w3.org/2000/svg">
  <desc>Created with Lunacy</desc>
  <g id="logo-hc">
    <path d="M6.76032 0C10.5994 0 13.175 2.0922 13.175 5.43748C13.175 7.47225 12.1978 9.10467 10.5533 10.0588L14.1974 15.4734L9.71424 15.4734L6.78336 10.9899L3.85152 10.9899L3.85152 15.4734L0 15.4734L0 0L6.76032 0ZM3.85152 7.52972L6.6912 7.52972C8.1744 7.52972 9.33504 6.71352 9.33504 5.43748C9.33504 4.18444 8.1744 3.39125 6.6912 3.39125L3.85152 3.39125L3.85152 7.52972Z" transform="translate(100.66016 0.7578125)" id="Shape" fill="#C8102E" fill-rule="evenodd" stroke="none" />
    <path d="M11.6909 3.34527L11.6909 0L0 0L0 15.4734L11.6909 15.4734L11.6909 12.128L3.85152 12.128L3.85152 9.4495L10.7136 9.4495L10.7136 6.17321L3.85152 6.17321L3.85152 3.34527L11.6909 3.34527Z" transform="translate(116.74219 0.7578125)" id="Path" fill="#C8102E" stroke="none" />
    <path d="M6.20736 0C11.0698 0 14.5536 3.16133 14.5536 7.69065C14.5536 12.289 11.0698 15.4734 6.20736 15.4734L0 15.4734L0 0L6.20736 0ZM6.20736 3.46023L3.83904 3.46023L3.83904 12.0131L6.20736 12.0131C8.736 12.0131 10.6675 10.1508 10.6675 7.69065C10.6675 5.29955 8.736 3.46023 6.20736 3.46023Z" transform="translate(131.03125 0.7578125)" id="Shape" fill="#C8102E" fill-rule="evenodd" stroke="none" />
    <path d="M3.85152 0L0 0L0 15.4734L3.85152 15.4734L3.85152 0Z" transform="translate(147.69922 0.7578125)" id="Path" fill="#C8102E" stroke="none" />
    <path d="M0 0L0 3.43723L4.43712 3.43723L4.43712 15.4734L8.25408 15.4734L8.25408 3.43723L12.7027 3.43723L12.7027 0L0 0Z" transform="translate(153.57422 0.7578125)" id="Path" fill="#C8102E" stroke="none" />
    <path d="M8.18496 16.071C12.0935 16.071 14.9901 13.7374 15.7956 10.2083L11.7256 10.2083C11.1278 11.6337 9.89779 12.4729 8.16202 12.4729C5.6329 12.4729 3.8855 10.6106 3.8855 8.03553C3.8855 5.46049 5.6329 3.59817 8.16202 3.59817C9.88637 3.59817 11.1278 4.44886 11.7256 5.86282L15.7956 5.86282C14.9901 2.33364 12.0935 0 8.18496 0C3.52915 0 0 3.36825 0 8.03553C0 12.7028 3.52915 16.071 8.18496 16.071Z" transform="translate(82.66797 0.45898438)" id="Path" fill="#C8102E" stroke="none" />
    <path d="M12.6682 4.12723C12.6682 5.55275 11.8752 7.03553 10.5293 7.51841C12.4147 7.9323 13.3459 9.53028 13.3574 11.1855C13.3574 13.7606 11.2771 15.4966 7.79328 15.4966L0 15.4966L0 0L7.33344 0C10.7021 0 12.6682 1.59798 12.6682 4.12723ZM3.85056 3.15008L6.73632 3.15008C8.21952 3.15008 8.98944 3.67884 8.98944 4.65598C8.98944 5.65622 8.19648 6.39193 6.73632 6.39193L3.85056 6.39193L3.85056 3.15008ZM3.85056 12.312L7.28832 12.312C8.88576 12.312 9.58752 11.5994 9.58752 10.6912C9.58752 9.73726 8.7936 9.18535 7.35648 9.18535L3.85056 9.18535L3.85056 12.312Z" transform="translate(175.79688 0.80371094)" id="Shape" fill="#C8102E" fill-rule="evenodd" stroke="none" />
    <path d="M0 15.4966L6.58752 0L10.2768 0L16.8413 15.4966L12.7373 15.4966L11.6909 12.8294L5.12736 12.8294L4.104 15.4966L0 15.4966ZM8.40384 4.40315L6.38016 9.62206L10.4381 9.62206L8.40384 4.40315Z" transform="translate(189.34766 0.80371094)" id="Shape" fill="#C8102E" fill-rule="evenodd" stroke="none" />
    <path d="M10.415 8.7256L2.94336 0L0 0L0 15.4966L3.85152 15.4966L3.85152 7.00104L11.2771 15.4966L14.2435 15.4966L14.2435 0L10.415 0L10.415 8.7256Z" transform="translate(207.47656 0.80371094)" id="Path" fill="#C8102E" stroke="none" />
    <path d="M14.5882 0L10.0358 0L3.85152 7.11589L3.85152 0L0 0L0 15.4966L3.85152 15.4966L3.85152 12.3582L6.12768 9.71412L10.2768 15.4966L15.0941 15.4966L8.69088 6.79409L14.5882 0Z" transform="translate(224.90625 0.80371094)" id="Path" fill="#C8102E" stroke="none" />
    <path d="M3.83959 9.66797L10.1393 9.66797L10.1393 15.4733L13.9673 15.4733L13.9673 0L10.1393 0L10.1393 6.2192L3.83959 6.2192L3.83959 0L0 0L0 15.4733L3.83959 15.4733L3.83959 9.66797Z" transform="translate(0 0.67871094)" id="Path" fill="#C8102E" stroke="none" />
    <path d="M3.81648 7.66766L7.2767 13.0132L7.2767 13.0362L9.4151 13.0362L9.4151 13.0132L12.8522 7.71367L12.8522 15.4733L16.7035 15.4733L16.7035 0L13.8293 0L8.34586 8.26546L2.86243 0L0 0L0 15.4733L3.83962 15.4733L3.81648 7.66766Z" transform="translate(41.476562 0.67871094)" id="Path" fill="#C8102E" stroke="none" />
    <path d="M11.6912 12.128L3.85094 12.128L3.85094 9.44953L10.7141 9.44953L10.7141 6.17322L3.85094 6.17322L3.85094 3.34528L11.6912 3.34528L11.6912 0L0 0L0 15.4733L11.6912 15.4733L11.6912 12.128Z" transform="translate(61.36328 0.67871094)" id="Path" fill="#C8102E" stroke="none" />
    <path d="M15.1284 16.1515L20.4739 16.1515C21.5432 14.5307 22.1636 12.6108 22.1636 10.5531C22.1636 4.72475 17.209 0 11.0819 0C4.96608 0 0 4.72475 0 10.5531C0 12.6108 0.620736 14.5307 1.68979 16.1515L7.03536 16.1515C5.4145 14.9215 4.35686 12.9787 4.35686 10.7945C4.35686 7.08139 7.36877 4.06952 11.0819 4.06952C14.7949 4.06952 17.807 7.08139 17.807 10.7945C17.7953 12.9787 16.7492 14.9215 15.1284 16.1515Z" transform="translate(16.644531 0)" id="Path" fill="#C8102E" stroke="none" />
    <path d="M3.63264 2.65555C5.32253 2.65555 6.74794 1.54042 7.26528 0L0 0C0.528768 1.54042 1.95427 2.65555 3.63264 2.65555Z" transform="translate(24.082031 12.2890625)" id="Path" fill="#C8102E" stroke="none" />
  </g>
</svg>

<svg width="240" height="17" viewBox="0 0 240 17" xmlns:xlink="http://www.w3.org/1999/xlink" xmlns="http://www.w3.org/2000/svg"><g id="logo-hc" fill="#C8102E" stroke="none"><path d="M6.76 0c3.84 0 6.415 2.092 6.415 5.437 0 2.035-.977 3.668-2.622 4.622l3.644 5.414H9.714l-2.93-4.483H3.851v4.483H0V0h6.76zM3.852 7.53h2.84c1.482 0 2.643-.816 2.643-2.093 0-1.253-1.16-2.046-2.644-2.046h-2.84V7.53z" transform="translate(100.66 .758)" id="Shape" fill-rule="evenodd"/><path d="M11.69 3.345V0H0v15.473h11.69v-3.345H3.853V9.45h6.862V6.173H3.852V3.345h7.839z" transform="translate(116.742 .758)" id="Path"/><path d="M6.207 0c4.863 0 8.347 3.161 8.347 7.69 0 4.599-3.484 7.783-8.347 7.783H0V0h6.207zm0 3.46H3.84v8.553h2.368c2.529 0 4.46-1.862 4.46-4.322 0-2.391-1.931-4.23-4.46-4.23z" transform="translate(131.031 .758)" id="Shape" fill-rule="evenodd"/><path d="M3.852 0H0v15.473h3.852V0z" transform="translate(147.7 .758)" id="Path"/><path d="M0 0v3.437h4.437v12.036h3.817V3.437h4.449V0H0z" transform="translate(153.574 .758)" id="Path"/><path d="M8.185 16.071c3.909 0 6.805-2.334 7.61-5.863h-4.07c-.597 1.426-1.827 2.265-3.563 2.265-2.53 0-4.277-1.862-4.277-4.437 0-2.576 1.748-4.438 4.277-4.438 1.724 0 2.966.85 3.564 2.265h4.07C14.99 2.333 12.094 0 8.185 0 3.529 0 0 3.368 0 8.036c0 4.667 3.53 8.035 8.185 8.035z" transform="translate(82.668 .459)" id="Path"/><path d="M12.668 4.127c0 1.426-.793 2.909-2.139 3.391 1.886.414 2.817 2.012 2.828 3.667 0 2.576-2.08 4.312-5.564 4.312H0V0h7.333c3.37 0 5.335 1.598 5.335 4.127zM3.851 3.15h2.885c1.484 0 2.253.529 2.253 1.506 0 1-.793 1.736-2.253 1.736H3.851V3.15zm0 9.162h3.437c1.598 0 2.3-.713 2.3-1.62 0-.955-.794-1.507-2.232-1.507H3.851v3.127z" transform="translate(175.797 .804)" id="Shape" fill-rule="evenodd"/><path d="M0 15.497L6.588 0h3.689l6.564 15.497h-4.104l-1.046-2.668H5.127l-1.023 2.668H0zM8.404 4.403L6.38 9.623h4.058l-2.034-5.22z" transform="translate(189.348 .804)" id="Shape" fill-rule="evenodd"/><path d="M10.415 8.726L2.943 0H0v15.497h3.852V7l7.425 8.496h2.966V0h-3.828v8.726z" transform="translate(207.477 .804)" id="Path"/><path d="M14.588 0h-4.552L3.852 7.116V0H0v15.497h3.852v-3.139l2.276-2.644 4.149 5.783h4.817L8.691 6.794 14.588 0z" transform="translate(224.906 .804)" id="Path"/><path d="M3.84 9.668h6.3v5.805h3.827V0H10.14v6.22h-6.3V0H0v15.473h3.84V9.668z" transform="translate(0 .679)" id="Path"/><path d="M3.816 7.668l3.46 5.345v.023h2.14v-.023l3.436-5.3v7.76h3.851V0H13.83L8.346 8.265 2.862 0H0v15.473h3.84l-.024-7.805z" transform="translate(41.477 .679)" id="Path"/><path d="M11.691 12.128h-7.84V9.45h6.863V6.173H3.851V3.345h7.84V0H0v15.473h11.691v-3.345z" transform="translate(61.363 .679)" id="Path"/><path d="M15.128 16.151h5.346c1.07-1.62 1.69-3.54 1.69-5.598C22.164 4.725 17.209 0 11.082 0 4.966 0 0 4.725 0 10.553c0 2.058.62 3.978 1.69 5.598h5.345a6.723 6.723 0 01-2.678-5.357 6.726 6.726 0 0113.45 0 6.756 6.756 0 01-2.679 5.357z" transform="translate(16.645)" id="Path"/><path d="M3.633 2.656c1.69 0 3.115-1.116 3.632-2.656H0c.529 1.54 1.954 2.656 3.633 2.656z" transform="translate(24.082 12.29)" id="Path"/></g></svg>
